Newaita-dark/apps/48/gnome-nibbles.svg

<svg height="48" viewBox="0 0 48 48" width="48" xmlns="http://www.w3.org/2000/svg" xmlns:xlink="http://www.w3.org/1999/xlink"><linearGradient id="a" gradientUnits="userSpaceOnUse" x1="23.81478" x2="23.81478" y1="42.0509045" y2="44.03547050005"><stop offset="0" stop-opacity=".27451"/><stop offset="1" stop-opacity="0"/></linearGradient><linearGradient id="b"><stop offset="0" stop-opacity=".313726"/><stop offset=".222222" stop-opacity=".27451"/><stop offset="1" stop-opacity="0"/></linearGradient><radialGradient id="c" cx="450.908936" cy="189.579361" gradientTransform="matrix(.00000026 -.117199 -.210958 -.00000015 78.195972 95.392999)" gradientUnits="userSpaceOnUse" r="21.166656" xlink:href="#b"/><radialGradient id="d" cx="450.908936" cy="189.579361" gradientTransform="matrix(-.00000026 .117199 .210958 .00000015 -30.56642 -11.291218)" gradientUnits="userSpaceOnUse" r="21.166656" xlink:href="#b"/><radialGradient id="e" cx="450.908936" cy="189.579361" gradientTransform="matrix(-.00000026 -.117199 .210958 -.00000015 -30.56642 95.392999)" gradientUnits="userSpaceOnUse" r="21.166656" xlink:href="#b"/><radialGradient id="f" cx="450.908936" cy="189.579361" gradientTransform="matrix(.00000026 .117199 -.210958 .00000015 78.195969 -11.291219)" gradientUnits="userSpaceOnUse" r="21.166656" xlink:href="#b"/><linearGradient id="g" gradientUnits="userSpaceOnUse" x1="15.87652349995" x2="15.87652349995" y1="42.0509015" y2="4.3441580001"><stop offset="0" stop-color="#424242"/><stop offset="1" stop-color="#616161"/></linearGradient><linearGradient id="h" gradientUnits="userSpaceOnUse" x1="14.388118" x2="14.388118" y1="32.12812580616" y2="28.65513180616"><stop offset="0" stop-color="#ef5350"/><stop offset="1" stop-color="#e57373"/></linearGradient><path d="m8.929688 41.902344h29.769531v2.207031h-29.769531zm0 0" fill="url(#a)"/><path d="m38.699219 42.050781h3.96875v-1.984375h-3.96875zm0 0" fill="url(#c)"/><path d="m8.929688 42.050781h-3.96875v1.984375h3.96875zm0 0" fill="url(#d)"/><path d="m8.929688 42.050781h-3.96875v-1.984375h3.96875zm0 0" fill="url(#e)"/><path d="m38.699219 42.050781h3.96875v1.984375h-3.96875zm0 0" fill="url(#f)"/><path d="m6.945312 4.34375h33.738282c1.097656 0 1.984375.890625 1.984375 1.984375v33.738281c0 1.097656-.886719 1.984375-1.984375 1.984375h-33.738282c-1.09375 0-1.984374-.886719-1.984374-1.984375v-33.738281c0-1.09375.890624-1.984375 1.984374-1.984375zm0 0" fill="url(#g)"/><path d="m6.945312 4.34375c-1.097656 0-1.984374.886719-1.984374 1.984375v.25c0-1.101563.886718-1.988281 1.984374-1.984375h33.738282c1.097656-.003906 1.984375.882812 1.984375 1.984375v-.25c0-1.097656-.886719-1.984375-1.984375-1.984375zm0 0" fill="#e6e6e6" fill-opacity=".392157"/><path d="m6.945312 42.050781c-1.097656 0-1.984374-.886719-1.984374-1.984375v-.25c0 1.101563.886718 1.988282 1.984374 1.988282h33.738282c1.097656 0 1.984375-.886719 1.984375-1.988282v.25c0 1.097656-.886719 1.984375-1.984375 1.984375zm0 0" fill-opacity=".196078"/><path d="m74.076259-168.671091h359.840637c11.707216 0 21.164646 9.499093 21.164646 21.164646v359.840637c0 11.707215-9.45743 21.164645-21.164646 21.164645h-359.840637c-11.665552 0-21.164645-9.45743-21.164645-21.164645v-359.840637c0-11.665553 9.499093-21.164646 21.164645-21.164646zm0 0" fill="none" stroke="#212121" stroke-linecap="round" stroke-width="3" transform="matrix(.093759 0 0 .093759 0 20.158175)"/><path d="m14.386719 12.777344c-.546875 0-.992188.445312-.992188.992187v9.429688c0 .546875.445313.992187.992188.992187.550781 0 .992187-.445312.992187-.992187v-8.4375h7.445313v16.375c0 .546875.386719.992187.867187.992187h9.550782c.550781 0 .992187-.445312.992187-.992187 0-.550781-.441406-.992188-.992187-.992188h-8.433594v-16.375c0-.546875-.390625-.992187-.871094-.992187zm0 0" fill="#81c784"/><path d="m13.394531 28.65625c-.546875 0-.992187.441406-.992187.992188v1.488281c0 .546875.445312.992187.992187.992187h1.984375c.550782 0 .992188-.445312.992188-.992187v-1.488281c0-.550782-.441406-.992188-.992188-.992188h-.496094v.496094c0 .273437-.21875.496094-.496093.496094-.273438 0-.496094-.222657-.496094-.496094v-.496094zm0 0" fill="url(#h)"/><path d="m14.386719 27.414062c.414062 0 .746093.332032.746093.746094v.742188c0 .410156-.332031.746094-.746093.746094-.410157 0-.742188-.335938-.742188-.746094v-.742188c0-.414062.332031-.746094.742188-.746094zm0 0" fill="#689f38" fill-opacity=".995816"/><path d="m14.386719 27.414062c-.410157 0-.742188.332032-.742188.746094v.496094c0-.414062.332031-.746094.742188-.746094.414062 0 .746093.332032.746093.746094v-.496094c0-.414062-.332031-.746094-.746093-.746094zm0 0" fill="#fff" fill-opacity=".392157"/><path d="m14.386719 12.777344c-.546875 0-.992188.445312-.992188.992187v.496094c0-.546875.445313-.992187.992188-.992187h9.550781c.480469 0 .871094.445312.871094.992187v-.496094c0-.546875-.390625-.992187-.871094-.992187zm10.421875 17.367187v.496094h8.433594c.464843 0 .851562.3125.960937.742187.019531-.078124.03125-.160156.03125-.246093 0-.550781-.441406-.992188-.992187-.992188zm0 0" fill="#fff" fill-opacity=".392157"/><path d="m15.378906 14.761719v.746093h7.445313v-.746093zm-1.984375 8.4375v.742187c0 .550782.445313.992188.992188.992188.550781 0 .992187-.441406.992187-.992188v-.742187c0 .546875-.441406.992187-.992187.992187-.546875 0-.992188-.445312-.992188-.992187zm9.429688 7.9375v.742187c0 .550782.386719.992188.867187.992188h9.550782c.550781 0 .992187-.441406.992187-.992188 0-.128906-.027344-.257812-.074219-.371094-.144531.363282-.5.621094-.917968.621094h-9.550782c-.480468 0-.867187-.445312-.867187-.992187zm0 0" fill-opacity=".235294"/><path d="m153.44368-78.721347c-5.832776 0-10.582323 4.749546-10.582323 10.582322v100.573729c0 5.832777 4.749547 10.582323 10.582323 10.582323 5.874439 0 10.582323-4.749546 10.582323-10.582323v-89.991406h79.409083v174.649989c0 5.832776 4.124607 10.582322 9.249117 10.582322h101.865273c5.874439 0 10.582322-4.749546 10.582322-10.582322 0-5.874439-4.707883-10.582323-10.582322-10.582323h-89.949744v-174.649989c0-5.832776-4.166269-10.582322-9.290779-10.582322zm0 0" fill="none" stroke="#212121" stroke-linecap="square" stroke-linejoin="bevel" stroke-width="3" transform="matrix(.093759 0 0 .093759 0 20.158175)"/><path d="m13.394531 28.65625c-.546875 0-.992187.441406-.992187.992188v.496093c0-.550781.445312-.992187.992187-.992187h.496094v-.496094zm1.488281 0v.496094h.496094c.550782 0 .992188.441406.992188.992187v-.496093c0-.550782-.441406-.992188-.992188-.992188zm-.992187.496094v.496094c0 .273437.222656.496093.496094.496093.277343 0 .496093-.222656.496093-.496093v-.496094c0 .273437-.21875.496094-.496093.496094-.273438 0-.496094-.222657-.496094-.496094zm0 0" fill="#fff" fill-opacity=".392157"/><path d="m12.402344 31.136719v.742187c0 .550782.445312.992188.992187.992188h1.984375c.550782 0 .992188-.441406.992188-.992188v-.742187c0 .546875-.441406.992187-.992188.992187h-1.984375c-.546875 0-.992187-.445312-.992187-.992187zm0 0" fill-opacity=".235294"/><g stroke="#212121" stroke-linecap="square" stroke-linejoin="bevel"><path d="m539.948466 1155.165338c-22.04514 0-39.996183 17.793578-39.996183 39.996183v59.994274c0 22.04514 17.951043 39.996183 39.996183 39.996183h79.992365c22.202606 0 39.996183-17.951043 39.996183-39.996183v-59.994274c0-22.202605-17.793577-39.996183-39.996183-39.996183h-19.998091v19.998092c0 11.02257-8.818056 19.998091-19.998091 19.998091-11.02257 0-19.998092-8.975521-19.998092-19.998091v-19.998092zm0 0" fill="none" stroke-width="11.338583" transform="scale(.0248071)"/><path d="m153.44368 77.388745c4.416245 0 7.957574 3.541328 7.957574 7.957573v7.915911c0 4.374582-3.541329 7.957574-7.957574 7.957574-4.374582 0-7.915911-3.582992-7.915911-7.957574v-7.915911c0-4.416245 3.541329-7.957573 7.915911-7.957573zm0 0" fill="#689f38" fill-opacity=".995816" stroke-width="3" transform="matrix(.093759 0 0 .093759 0 20.158175)"/></g></svg>

<?xml version="1.0" encoding="UTF-8"?>
<svg xmlns="http://www.w3.org/2000/svg" xmlns:xlink="http://www.w3.org/1999/xlink" width="48px" height="48px" viewBox="0 0 48 48" version="1.1">
<defs>
<linearGradient id="linear0" gradientUnits="userSpaceOnUse" x1="254" y1="233.5" x2="254" y2="254.666672" gradientTransform="matrix(0.093759,0,0,0.093759,-0.00000572259,20.158178)">
<stop offset="0" style="stop-color:rgb(0%,0%,0%);stop-opacity:0.27451;"/>
<stop offset="1" style="stop-color:rgb(0%,0%,0%);stop-opacity:0;"/>
</linearGradient>
<radialGradient id="radial0" gradientUnits="userSpaceOnUse" cx="450.908936" cy="189.579361" fx="450.908936" fy="189.579361" r="21.166656" gradientTransform="matrix(0.000000261256,-0.117199,-0.210958,-0.000000152308,78.195972,95.392999)">
<stop offset="0" style="stop-color:rgb(0%,0%,0%);stop-opacity:0.313726;"/>
<stop offset="0.222222" style="stop-color:rgb(0%,0%,0%);stop-opacity:0.27451;"/>
<stop offset="1" style="stop-color:rgb(0%,0%,0%);stop-opacity:0;"/>
</radialGradient>
<radialGradient id="radial1" gradientUnits="userSpaceOnUse" cx="450.908936" cy="189.579361" fx="450.908936" fy="189.579361" r="21.166656" gradientTransform="matrix(-0.000000261256,0.117199,0.210958,0.000000152308,-30.56642,-11.291218)">
<stop offset="0" style="stop-color:rgb(0%,0%,0%);stop-opacity:0.313726;"/>
<stop offset="0.222222" style="stop-color:rgb(0%,0%,0%);stop-opacity:0.27451;"/>
<stop offset="1" style="stop-color:rgb(0%,0%,0%);stop-opacity:0;"/>
</radialGradient>
<radialGradient id="radial2" gradientUnits="userSpaceOnUse" cx="450.908936" cy="189.579361" fx="450.908936" fy="189.579361" r="21.166656" gradientTransform="matrix(-0.000000261256,-0.117199,0.210958,-0.000000152308,-30.56642,95.392999)">
<stop offset="0" style="stop-color:rgb(0%,0%,0%);stop-opacity:0.313726;"/>
<stop offset="0.222222" style="stop-color:rgb(0%,0%,0%);stop-opacity:0.27451;"/>
<stop offset="1" style="stop-color:rgb(0%,0%,0%);stop-opacity:0;"/>
</radialGradient>
<radialGradient id="radial3" gradientUnits="userSpaceOnUse" cx="450.908936" cy="189.579361" fx="450.908936" fy="189.579361" r="21.166656" gradientTransform="matrix(0.000000261256,0.117199,-0.210958,0.000000152308,78.195969,-11.291219)">
<stop offset="0" style="stop-color:rgb(0%,0%,0%);stop-opacity:0.313726;"/>
<stop offset="0.222222" style="stop-color:rgb(0%,0%,0%);stop-opacity:0.27451;"/>
<stop offset="1" style="stop-color:rgb(0%,0%,0%);stop-opacity:0;"/>
</radialGradient>
<linearGradient id="linear1" gradientUnits="userSpaceOnUse" x1="169.333328" y1="233.5" x2="169.333328" y2="-168.666656" gradientTransform="matrix(0.093759,0,0,0.093759,0,20.158175)">
<stop offset="0" style="stop-color:rgb(25.882354%,25.882354%,25.882354%);stop-opacity:1;"/>
<stop offset="1" style="stop-color:rgb(38.039216%,38.039216%,38.039216%);stop-opacity:1;"/>
</linearGradient>
<linearGradient id="linear2" gradientUnits="userSpaceOnUse" x1="580" y1="1295.118164" x2="580" y2="1155.118164" gradientTransform="matrix(0.0248071,0,0,0.0248071,0,0.00000000000000282)">
<stop offset="0" style="stop-color:rgb(93.725491%,32.549021%,31.37255%);stop-opacity:1;"/>
<stop offset="1" style="stop-color:rgb(89.803922%,45.09804%,45.09804%);stop-opacity:1;"/>
</linearGradient>
</defs>
<g id="surface1">
<path style=" stroke:none;fill-rule:nonzero;fill:url(#linear0);" d="M 8.929688 41.902344 L 38.699219 41.902344 L 38.699219 44.109375 L 8.929688 44.109375 Z M 8.929688 41.902344 "/>
<path style=" stroke:none;fill-rule:nonzero;fill:url(#radial0);" d="M 38.699219 42.050781 L 42.667969 42.050781 L 42.667969 40.066406 L 38.699219 40.066406 Z M 38.699219 42.050781 "/>
<path style=" stroke:none;fill-rule:nonzero;fill:url(#radial1);" d="M 8.929688 42.050781 L 4.960938 42.050781 L 4.960938 44.035156 L 8.929688 44.035156 Z M 8.929688 42.050781 "/>
<path style=" stroke:none;fill-rule:nonzero;fill:url(#radial2);" d="M 8.929688 42.050781 L 4.960938 42.050781 L 4.960938 40.066406 L 8.929688 40.066406 Z M 8.929688 42.050781 "/>
<path style=" stroke:none;fill-rule:nonzero;fill:url(#radial3);" d="M 38.699219 42.050781 L 42.667969 42.050781 L 42.667969 44.035156 L 38.699219 44.035156 Z M 38.699219 42.050781 "/>
<path style=" stroke:none;fill-rule:nonzero;fill:url(#linear1);" d="M 6.945312 4.34375 L 40.683594 4.34375 C 41.78125 4.34375 42.667969 5.234375 42.667969 6.328125 L 42.667969 40.066406 C 42.667969 41.164062 41.78125 42.050781 40.683594 42.050781 L 6.945312 42.050781 C 5.851562 42.050781 4.960938 41.164062 4.960938 40.066406 L 4.960938 6.328125 C 4.960938 5.234375 5.851562 4.34375 6.945312 4.34375 Z M 6.945312 4.34375 "/>
<path style=" stroke:none;fill-rule:nonzero;fill:rgb(90.196079%,90.196079%,90.196079%);fill-opacity:0.392157;" d="M 6.945312 4.34375 C 5.847656 4.34375 4.960938 5.230469 4.960938 6.328125 L 4.960938 6.578125 C 4.960938 5.476562 5.847656 4.589844 6.945312 4.59375 L 40.683594 4.59375 C 41.78125 4.589844 42.667969 5.476562 42.667969 6.578125 L 42.667969 6.328125 C 42.667969 5.230469 41.78125 4.34375 40.683594 4.34375 Z M 6.945312 4.34375 "/>
<path style=" stroke:none;fill-rule:nonzero;fill:rgb(0%,0%,0%);fill-opacity:0.196078;" d="M 6.945312 42.050781 C 5.847656 42.050781 4.960938 41.164062 4.960938 40.066406 L 4.960938 39.816406 C 4.960938 40.917969 5.847656 41.804688 6.945312 41.804688 L 40.683594 41.804688 C 41.78125 41.804688 42.667969 40.917969 42.667969 39.816406 L 42.667969 40.066406 C 42.667969 41.164062 41.78125 42.050781 40.683594 42.050781 Z M 6.945312 42.050781 "/>
<path style="fill:none;stroke-width:3;stroke-linecap:round;stroke-linejoin:miter;stroke:rgb(12.941177%,12.941177%,12.941177%);stroke-opacity:1;stroke-miterlimit:4;" d="M 74.076259 -168.671091 L 433.916896 -168.671091 C 445.624112 -168.671091 455.081542 -159.171998 455.081542 -147.506445 L 455.081542 212.334192 C 455.081542 224.041407 445.624112 233.498837 433.916896 233.498837 L 74.076259 233.498837 C 62.410707 233.498837 52.911614 224.041407 52.911614 212.334192 L 52.911614 -147.506445 C 52.911614 -159.171998 62.410707 -168.671091 74.076259 -168.671091 Z M 74.076259 -168.671091 " transform="matrix(0.093759,0,0,0.093759,0,20.158175)"/>
<path style=" stroke:none;fill-rule:nonzero;fill:rgb(50.588238%,78.039217%,51.764709%);fill-opacity:1;" d="M 14.386719 12.777344 C 13.839844 12.777344 13.394531 13.222656 13.394531 13.769531 L 13.394531 23.199219 C 13.394531 23.746094 13.839844 24.191406 14.386719 24.191406 C 14.9375 24.191406 15.378906 23.746094 15.378906 23.199219 L 15.378906 14.761719 L 22.824219 14.761719 L 22.824219 31.136719 C 22.824219 31.683594 23.210938 32.128906 23.691406 32.128906 L 33.242188 32.128906 C 33.792969 32.128906 34.234375 31.683594 34.234375 31.136719 C 34.234375 30.585938 33.792969 30.144531 33.242188 30.144531 L 24.808594 30.144531 L 24.808594 13.769531 C 24.808594 13.222656 24.417969 12.777344 23.9375 12.777344 Z M 14.386719 12.777344 "/>
<path style=" stroke:none;fill-rule:nonzero;fill:url(#linear2);" d="M 13.394531 28.65625 C 12.847656 28.65625 12.402344 29.097656 12.402344 29.648438 L 12.402344 31.136719 C 12.402344 31.683594 12.847656 32.128906 13.394531 32.128906 L 15.378906 32.128906 C 15.929688 32.128906 16.371094 31.683594 16.371094 31.136719 L 16.371094 29.648438 C 16.371094 29.097656 15.929688 28.65625 15.378906 28.65625 L 14.882812 28.65625 L 14.882812 29.152344 C 14.882812 29.425781 14.664062 29.648438 14.386719 29.648438 C 14.113281 29.648438 13.890625 29.425781 13.890625 29.152344 L 13.890625 28.65625 Z M 13.394531 28.65625 "/>
<path style=" stroke:none;fill-rule:nonzero;fill:rgb(40.784314%,62.352943%,21.960784%);fill-opacity:0.995816;" d="M 14.386719 27.414062 C 14.800781 27.414062 15.132812 27.746094 15.132812 28.160156 L 15.132812 28.902344 C 15.132812 29.3125 14.800781 29.648438 14.386719 29.648438 C 13.976562 29.648438 13.644531 29.3125 13.644531 28.902344 L 13.644531 28.160156 C 13.644531 27.746094 13.976562 27.414062 14.386719 27.414062 Z M 14.386719 27.414062 "/>
<path style=" stroke:none;fill-rule:nonzero;fill:rgb(100%,100%,100%);fill-opacity:0.392157;" d="M 14.386719 27.414062 C 13.976562 27.414062 13.644531 27.746094 13.644531 28.160156 L 13.644531 28.65625 C 13.644531 28.242188 13.976562 27.910156 14.386719 27.910156 C 14.800781 27.910156 15.132812 28.242188 15.132812 28.65625 L 15.132812 28.160156 C 15.132812 27.746094 14.800781 27.414062 14.386719 27.414062 Z M 14.386719 27.414062 "/>
<path style=" stroke:none;fill-rule:nonzero;fill:rgb(100%,100%,100%);fill-opacity:0.392157;" d="M 14.386719 12.777344 C 13.839844 12.777344 13.394531 13.222656 13.394531 13.769531 L 13.394531 14.265625 C 13.394531 13.71875 13.839844 13.273438 14.386719 13.273438 L 23.9375 13.273438 C 24.417969 13.273438 24.808594 13.71875 24.808594 14.265625 L 24.808594 13.769531 C 24.808594 13.222656 24.417969 12.777344 23.9375 12.777344 Z M 24.808594 30.144531 L 24.808594 30.640625 L 33.242188 30.640625 C 33.707031 30.640625 34.09375 30.953125 34.203125 31.382812 C 34.222656 31.304688 34.234375 31.222656 34.234375 31.136719 C 34.234375 30.585938 33.792969 30.144531 33.242188 30.144531 Z M 24.808594 30.144531 "/>
<path style=" stroke:none;fill-rule:nonzero;fill:rgb(0%,0%,0%);fill-opacity:0.235294;" d="M 15.378906 14.761719 L 15.378906 15.507812 L 22.824219 15.507812 L 22.824219 14.761719 Z M 13.394531 23.199219 L 13.394531 23.941406 C 13.394531 24.492188 13.839844 24.933594 14.386719 24.933594 C 14.9375 24.933594 15.378906 24.492188 15.378906 23.941406 L 15.378906 23.199219 C 15.378906 23.746094 14.9375 24.191406 14.386719 24.191406 C 13.839844 24.191406 13.394531 23.746094 13.394531 23.199219 Z M 22.824219 31.136719 L 22.824219 31.878906 C 22.824219 32.429688 23.210938 32.871094 23.691406 32.871094 L 33.242188 32.871094 C 33.792969 32.871094 34.234375 32.429688 34.234375 31.878906 C 34.234375 31.75 34.207031 31.621094 34.160156 31.507812 C 34.015625 31.871094 33.660156 32.128906 33.242188 32.128906 L 23.691406 32.128906 C 23.210938 32.128906 22.824219 31.683594 22.824219 31.136719 Z M 22.824219 31.136719 "/>
<path style="fill:none;stroke-width:3;stroke-linecap:square;stroke-linejoin:bevel;stroke:rgb(12.941177%,12.941177%,12.941177%);stroke-opacity:1;stroke-miterlimit:4;" d="M 153.44368 -78.721347 C 147.610904 -78.721347 142.861357 -73.971801 142.861357 -68.139025 L 142.861357 32.434704 C 142.861357 38.267481 147.610904 43.017027 153.44368 43.017027 C 159.318119 43.017027 164.026003 38.267481 164.026003 32.434704 L 164.026003 -57.556702 L 243.435086 -57.556702 L 243.435086 117.093287 C 243.435086 122.926063 247.559693 127.675609 252.684203 127.675609 L 354.549476 127.675609 C 360.423915 127.675609 365.131798 122.926063 365.131798 117.093287 C 365.131798 111.218848 360.423915 106.510964 354.549476 106.510964 L 264.599732 106.510964 L 264.599732 -68.139025 C 264.599732 -73.971801 260.433463 -78.721347 255.308953 -78.721347 Z M 153.44368 -78.721347 " transform="matrix(0.093759,0,0,0.093759,0,20.158175)"/>
<path style=" stroke:none;fill-rule:nonzero;fill:rgb(100%,100%,100%);fill-opacity:0.392157;" d="M 13.394531 28.65625 C 12.847656 28.65625 12.402344 29.097656 12.402344 29.648438 L 12.402344 30.144531 C 12.402344 29.59375 12.847656 29.152344 13.394531 29.152344 L 13.890625 29.152344 L 13.890625 28.65625 Z M 14.882812 28.65625 L 14.882812 29.152344 L 15.378906 29.152344 C 15.929688 29.152344 16.371094 29.59375 16.371094 30.144531 L 16.371094 29.648438 C 16.371094 29.097656 15.929688 28.65625 15.378906 28.65625 Z M 13.890625 29.152344 L 13.890625 29.648438 C 13.890625 29.921875 14.113281 30.144531 14.386719 30.144531 C 14.664062 30.144531 14.882812 29.921875 14.882812 29.648438 L 14.882812 29.152344 C 14.882812 29.425781 14.664062 29.648438 14.386719 29.648438 C 14.113281 29.648438 13.890625 29.425781 13.890625 29.152344 Z M 13.890625 29.152344 "/>
<path style=" stroke:none;fill-rule:nonzero;fill:rgb(0%,0%,0%);fill-opacity:0.235294;" d="M 12.402344 31.136719 L 12.402344 31.878906 C 12.402344 32.429688 12.847656 32.871094 13.394531 32.871094 L 15.378906 32.871094 C 15.929688 32.871094 16.371094 32.429688 16.371094 31.878906 L 16.371094 31.136719 C 16.371094 31.683594 15.929688 32.128906 15.378906 32.128906 L 13.394531 32.128906 C 12.847656 32.128906 12.402344 31.683594 12.402344 31.136719 Z M 12.402344 31.136719 "/>
<path style="fill:none;stroke-width:11.338583;stroke-linecap:square;stroke-linejoin:bevel;stroke:rgb(12.941177%,12.941177%,12.941177%);stroke-opacity:1;stroke-miterlimit:4;" d="M 539.948466 1155.165338 C 517.903326 1155.165338 499.952283 1172.958916 499.952283 1195.161521 L 499.952283 1255.155795 C 499.952283 1277.200935 517.903326 1295.151978 539.948466 1295.151978 L 619.940831 1295.151978 C 642.143437 1295.151978 659.937014 1277.200935 659.937014 1255.155795 L 659.937014 1195.161521 C 659.937014 1172.958916 642.143437 1155.165338 619.940831 1155.165338 L 599.94274 1155.165338 L 599.94274 1175.16343 C 599.94274 1186.186 591.124684 1195.161521 579.944649 1195.161521 C 568.922079 1195.161521 559.946557 1186.186 559.946557 1175.16343 L 559.946557 1155.165338 Z M 539.948466 1155.165338 " transform="matrix(0.0248071,0,0,0.0248071,0,0)"/>
<path style="fill-rule:nonzero;fill:rgb(40.784314%,62.352943%,21.960784%);fill-opacity:0.995816;stroke-width:3;stroke-linecap:square;stroke-linejoin:bevel;stroke:rgb(12.941177%,12.941177%,12.941177%);stroke-opacity:1;stroke-miterlimit:4;" d="M 153.44368 77.388745 C 157.859925 77.388745 161.401254 80.930073 161.401254 85.346318 L 161.401254 93.262229 C 161.401254 97.636811 157.859925 101.219803 153.44368 101.219803 C 149.069098 101.219803 145.527769 97.636811 145.527769 93.262229 L 145.527769 85.346318 C 145.527769 80.930073 149.069098 77.388745 153.44368 77.388745 Z M 153.44368 77.388745 " transform="matrix(0.093759,0,0,0.093759,0,20.158175)"/>
</g>
</svg>
